Yaru++/actions/16/tool-tweak.svg

<svg viewBox="0 0 24 24" xmlns="http://www.w3.org/2000/svg">
  <path d="m14.009766 5c-1.69434-.0401-2.940575.8956362-3.771485 2.1914062-.8312598 1.2963001-1.3313566 2.9611018-1.7480466 4.6074218s-.7454331 3.279821-1.1582032 4.457031c-.2063899.5886-.4374818 1.058827-.6699218 1.347657-.23244.28882-.418945.391564-.671875.396484-.86069.00017-1.9902344 0-1.9902344 0v1s1.13743.00017 2 0h.0039062.0058594c.58045-.0113 1.0788307-.331121 1.4316406-.769531.3528201-.43841.6079544-.999902.8339844-1.644531.45206-1.289271.7770669-2.929079 1.1855469-4.542969s.9026505-3.1951703 1.6191405-4.3125002c.7165-1.11733 1.571033-1.7627788 2.908203-1.7304688h.003907.003906c2.71252.0218 3.864038 1.1389731 4.455078 2.2519531.38885.73226.328188 1.0493438.361328 1.4648438-1.69952-.75477-3.135651-.9514288-4.144531-.4179688-1.20188.63551-1.747578 1.9798659-1.835938 3.3847659-.0884 1.40491.256328 2.927214.955078 4.146484.69874 1.21926 1.809371 2.170522 3.212891 2.169922 1.54836.0148 3.005859 0 3.005859 0l-.011718-1s-1.450955.0148-2.990235 0h-.001953-.001953c-.95183.0004-1.758333-.643049-2.345703-1.667969-.58736-1.02492-.899109-2.395087-.824219-3.585937.0749-1.19084.513838-2.146273 1.304688-2.564453.79085-.4181804 2.0969-.3923541 4.11914.753906l.710938.402344.035156-.816407s.064404-1.3627609-.666016-2.7382809c-.72974-1.37418-2.326275-2.7564531-5.322265-2.7832031z" fill="#808080"/>
</svg>

<svg xmlns="http://www.w3.org/2000/svg" viewBox="0 0 24 24">
 <defs>
  <style id="current-color-scheme" type="text/css">
   .ColorScheme-Text { color:#808080; }
  </style>
 </defs>
 <path fill="#808080" class="ColorScheme-Text" d="M 14.009766 5 C 12.315426 4.9599 11.069191 5.8956362 10.238281 7.1914062 C 9.4070212 8.4877063 8.9069244 10.152508 8.4902344 11.798828 C 8.0735444 13.445148 7.7448013 15.078649 7.3320312 16.255859 C 7.1256413 16.844459 6.8945494 17.314686 6.6621094 17.603516 C 6.4296694 17.892336 6.2431644 17.99508 5.9902344 18 C 5.1295444 18.00017 4 18 4 18 L 4 19 C 4 19 5.13743 19.00017 6 19 L 6.0039062 19 L 6.0097656 19 C 6.5902156 18.9887 7.0885963 18.668879 7.4414062 18.230469 C 7.7942263 17.792059 8.0493606 17.230567 8.2753906 16.585938 C 8.7274506 15.296667 9.0524575 13.656859 9.4609375 12.042969 C 9.8694175 10.429079 10.363588 8.8477987 11.080078 7.7304688 C 11.796578 6.6131388 12.651111 5.96769 13.988281 6 L 13.992188 6 L 13.996094 6 C 16.708614 6.0218 17.860132 7.1389731 18.451172 8.2519531 C 18.840022 8.9842131 18.77936 9.3012969 18.8125 9.7167969 C 17.11298 8.9620269 15.676849 8.7653681 14.667969 9.2988281 C 13.466089 9.9343381 12.920391 11.278694 12.832031 12.683594 C 12.743631 14.088504 13.088359 15.610808 13.787109 16.830078 C 14.485849 18.049338 15.59648 19.0006 17 19 C 18.54836 19.0148 20.005859 19 20.005859 19 L 19.994141 18 C 19.994141 18 18.543186 18.0148 17.003906 18 L 17.001953 18 L 17 18 C 16.04817 18.0004 15.241667 17.356951 14.654297 16.332031 C 14.066937 15.307111 13.755188 13.936944 13.830078 12.746094 C 13.904978 11.555254 14.343916 10.599821 15.134766 10.181641 C 15.925616 9.7634606 17.231666 9.7892869 19.253906 10.935547 L 19.964844 11.337891 L 20 10.521484 C 20 10.521484 20.064404 9.1587231 19.333984 7.7832031 C 18.604244 6.4090231 17.007709 5.02675 14.011719 5 L 14.009766 5 z"/>
</svg>
